assets/Fire extinguisher/Flat/fire_extinguisher_flat.svg

<svg width="32" height="32" viewBox="0 0 32 32" fill="none" xmlns="http://www.w3.org/2000/svg">
<path d="M22.02 30H11.98C10.89 30 10 29.1096 10 28.0191V12.7725C10 9.58112 12.58 7 15.77 7H18.23C21.42 7 24 9.58112 24 12.7725V28.0191C24 29.1096 23.12 30 22.02 30Z" fill="#F8312F"/>
<path d="M22.0133 26.4997C22.0133 26.7799 22.2304 27 22.5067 27C22.7731 27 23 26.7699 23 26.4997V13.4241C23 10.4226 20.4533 8 17.4933 8C17.2171 8 17 8.22012 17 8.50026C17 8.78041 17.2171 9.00053 17.4933 9.00053C19.9107 9.00053 22.0133 10.9729 22.0133 13.4241V26.4997Z" fill="#F4F4F4"/>
<path d="M14.9394 16H19.0706C19.5857 16 20.0099 15.5703 19.9998 15.0486V12.9514C19.9998 12.4297 19.5756 12 19.0605 12H14.9394C14.4242 12 14 12.4297 14 12.9514V15.0486C14 15.5703 14.4242 16 14.9394 16Z" fill="#F4F4F4"/>
<path d="M23.0011 4L18 3.9926V4.15589L22.7002 6.10452C22.9564 6.20729 23.0691 6.48757 22.9564 6.72114C22.8334 6.96405 22.5362 7.06682 22.28 6.9547L18 5.18026V7H16V6.61805C15.7346 6.85557 15.3842 7 15 7C14.1716 7 13.5 6.32843 13.5 5.5C13.5 4.67157 14.1716 4 15 4C15.3842 4 15.7346 4.14443 16 4.38195V3.59701C16 3.5047 16.0213 3.41711 16.0594 3.33888C16.0209 3.23208 16 3.11636 16 2.99502C16.01 2.44776 16.4506 2 17 2H22.9911C23.5505 2 24 2.44776 24 3.00498C24 3.55224 23.5505 4 23.0011 4Z" fill="#D3D3D3"/>
<path d="M8 22.0002V11C8 6.05693 12.0317 2 17 2V4C13.1618 4 10 7.17343 10 11V22C10 22 11.8901 28.76 12.0001 29.17C12.1101 29.58 11.9401 30 11.5001 30H6.50005C6.07005 30 5.90001 29.59 6.00001 29.17L8 22.0002Z" fill="#321B41"/>
<path d="M15 7.5C13.8954 7.5 13 6.60457 13 5.5C13 4.39543 13.8954 3.5 15 3.5C16.1046 3.5 17 4.39543 17 5.5C17 6.60457 16.1046 7.5 15 7.5ZM16 5.39999C16 5.10706 15.868 4.83434 15.6751 4.65252L15.0051 5.41009V4.39999C14.4467 4.39999 14 4.84444 14 5.39999C14 5.95555 14.4365 6.39999 14.9949 6.39999C15.5533 6.39999 16 5.94545 16 5.39999Z" fill="#E6E6E6"/>
<path d="M8 19H10L10 21L9 21.5L8 21V19Z" fill="#E6E6E6"/>
<path d="M24 21H8V22H24V21Z" fill="#433B6B"/>
</svg>

<svg xmlns="http://www.w3.org/2000/svg" width="32" height="32" fill="none"><path fill="#F8312F" d="M22.02 30H11.98c-1.09 0-1.98-.89-1.98-1.98V12.772A5.767 5.767 0 0 1 15.77 7h2.46C21.42 7 24 9.581 24 12.773v15.246C24 29.11 23.12 30 22.02 30Z"/><path fill="#F4F4F4" d="M22.013 26.5c0 .28.217.5.494.5.266 0 .493-.23.493-.5V13.424C23 10.423 20.453 8 17.493 8a.492.492 0 0 0-.493.5c0 .28.217.5.493.5 2.418 0 4.52 1.973 4.52 4.424V26.5Z"/><path fill="#F4F4F4" d="M14.94 16h4.13c.516 0 .94-.43.93-.951V12.95a.95.95 0 0 0-.94-.951h-4.12a.95.95 0 0 0-.94.951v2.098a.95.95 0 0 0 .94.951Z"/><path fill="#D3D3D3" d="M23.001 4 18 3.993v.163l4.7 1.949a.453.453 0 0 1 .256.616.521.521 0 0 1-.676.234L18 5.18V7h-2v-.382a1.5 1.5 0 1 1 0-2.236v-.785c0-.092.021-.18.06-.258a1.012 1.012 0 0 1-.06-.344c.01-.547.45-.995 1-.995h5.991a1 1 0 1 1 .01 2Z"/><path fill="#321B41" d="M8 22V11c0-4.943 4.032-9 9-9v2c-3.838 0-7 3.173-7 7v11s1.89 6.76 2 7.17c.11.41-.06.83-.5.83h-5c-.43 0-.6-.41-.5-.83L8 22Z"/><path fill="#E6E6E6" d="M15 7.5a2 2 0 1 1 0-4 2 2 0 0 1 0 4Zm1-2.1c0-.293-.132-.566-.325-.747l-.67.757V4.4A.998.998 0 0 0 14 5.4c0 .556.437 1 .995 1S16 5.945 16 5.4ZM8 19h2v2l-1 .5-1-.5v-2Z"/><path fill="#433B6B" d="M24 21H8v1h16v-1Z"/></svg>
